deployments/warp_routes/FUEL/logo.svg

<svg width="353" height="354" viewBox="0 0 353 354" fill="none" xmlns="http://www.w3.org/2000/svg">
<g clip-path="url(#clip0_1_15040)">
<path d="M23.4861 0C20.4021 -0.56429 17.3481 0.04171 14.4987 1.2215C11.6493 2.40128 9.06015 4.13082 6.87921 6.31134C4.69826 8.49185 2.9682 11.0806 1.78786 13.9298C0.607512 16.779 -5.99417e-08 19.8329 0 22.9169V353.167H292.268C297.169 353.17 302.022 352.208 306.55 350.334C311.079 348.46 315.193 345.711 318.657 342.245L342.338 318.574C349.329 311.581 353.258 302.097 353.259 292.208V0H23.4861Z" fill="#00F58C"/>
<path d="M57.2546 45.4074H230.634L115.759 160.259C112.907 163.108 109.04 164.708 105.009 164.708C102.13 164.708 99.309 163.891 96.8757 162.351C94.4424 160.811 92.4963 158.612 91.2638 156.009L46.7592 61.9352C45.9225 60.1684 45.5469 58.2185 45.6676 56.2673C45.7882 54.3161 46.4011 52.4273 47.449 50.777C48.497 49.1267 49.9458 47.7687 51.6605 46.8298C53.3751 45.8908 55.2997 45.4015 57.2546 45.4074Z" fill="black"/>
<path d="M45.4167 307.741V196.005C45.418 193.142 46.556 190.397 48.5805 188.374C50.6051 186.35 53.3505 185.213 56.213 185.213H167.986L45.4167 307.741Z" fill="black"/>
<path d="M196.477 156.731C191.365 161.839 184.434 164.708 177.208 164.708H140.208L251.555 53.3842C256.667 48.2768 263.598 45.4077 270.824 45.4073H307.824L196.477 156.731Z" fill="black"/>
</g>
<defs>
<clipPath id="clip0_1_15040">
<rect width="353.241" height="500" fill="white"/>
</clipPath>
</defs>
</svg>

<svg xmlns="http://www.w3.org/2000/svg" width="353" height="354" fill="none" viewBox="0 0 353 354"><g clip-path="url(#a)"><path fill="#00F58C" d="M23.486 0c-3.084-.564-6.138.042-8.987 1.222A23.48 23.48 0 0 0 0 22.917v330.25h292.268a37.3 37.3 0 0 0 26.389-10.922l23.681-23.671a37.3 37.3 0 0 0 10.921-26.366V0z"/><path fill="#000" d="M57.255 45.407h173.379L115.759 160.26a15.21 15.21 0 0 1-24.495-4.25L46.759 61.935a11.573 11.573 0 0 1 10.496-16.528M45.417 307.741V196.005a10.795 10.795 0 0 1 10.796-10.792h111.773zm151.06-151.01a27.26 27.26 0 0 1-19.269 7.977h-37L251.555 53.384a27.27 27.27 0 0 1 19.269-7.977h37z"/></g><defs><clipPath id="a"><path fill="#fff" d="M0 0h353.241v500H0z"/></clipPath></defs></svg>
